X: 25
T: Drunken-man Dance Song (c)
C: Anon.
%%abc-version 2.0
%%abcx-abcm2ps-target-version 5.9.1 (29 Sep 2008)
%%abc-creator hum2abc beta
%%abcx-conversion-date 2020/08/10 20:56:09
%%abc-copyright Electronic Copyright 2000 David Huron
%%abc-edited-by David Huron
%%abcx-initial-encoding-date August 27, 2000
%%humdrum-veritas 3168562189
%%humdrum-veritas-data 2834887800
%%linebreak <none>
%%barnumbers 0
L: 1/8
M: 2/4
Q: 1/4=100
K: A clef=bass
F,2F, F, | 
F, F,- F, F, | 
E,2C, C, | 
C,2F, z | 
F, F,- F, F, | 
F,2F,3/ ^E,/ | 
F, F,F,2 | 
A,2A, F, | 
B,2A,2 | 
A, F,- F, F, | 
F, F, F, z | 
F, F,F,2 | 
F, F,- F, F, | 
E,2C, C, | 
C,2F, z | 
F, F,- F, F, | 
F,2F,3/ ^E,/ | 
F, F,F,2 | 
A,2F, F, | 
B,2A,2 | 
A, F,- F, F, | 
F, F, F, z | 
F, F,F,2 | 
F, F,- F, F, | 
E,2E, C, | 
C,2F, z | 
F, F,- F, F, | 
F,2F,3/ ^E,/ | 
F, F,F,2 | 
B,2F, F, | 
B,2A,2 | 
A, F,- F, ^E, | 
F, F, F, z | 
F,2A,2 | 
E, E,- E, C, | 
E,2C, C, | 
C,2F, z | 
F, F,- F, F, | 
F,2F,3/ ^E,/ | 
F, F,F,2 | 
A,2A, F, | 
B,2A,2 | 
A, F,- F, F, | 
F, F, F, z | 
F,2A,2 | 
E, E,- E, C, | 
E,2C, C, | 
C,2F, z | 
F, F,- F, ^E, | 
F,2F,3/ ^E,/ | 
F, F,F,2 | 
F, F,- F, F, | 
F,2F,3/ ^E,/ | 
F, F,F,2 | 
A,2A, F, | 
B,2A,2 | 
A, F,- F, F, | 
F, F, F, z | 
F, F,F,2 | 
F, F,- F, F, | 
E,2C, C, | 
C,2F, z | 
F, F,- F, F, | 
F,2F,3/ ^E,/ | 
F, F,F,2 | 
A,2F, F, | 
B,2A,2 | 
A, F,- F, F, | 
F, F, F, z | 
F, F,F,2 | 
F, F,- F, F, | 
E,2E, C, | 
C,2F, z | 
F, F,- F, F, | 
F,2F,3/ ^E,/ | 
F, F,F,2 | 
B,2F, F, | 
B,2A,2 | 
A, F,- F, ^E, | 
F, F, F, z | 
F,2A,2 | 
E, E,- E, C, | 
E,2C, C, | 
C,2F, z | 
F, F,- F, F, | 
F,2F,3/ ^E,/ | 
F, F,F,2 | 
A,2A, F, | 
B,2A,2 | 
A, F,- F, F, | 
F, F, F, z | 
F,2A,2 | 
E, E,- E, C, | 
E,2C, C, | 
C,2F, z | 
F, F,- F, ^E, | 
F,2F,3/ ^E,/ | 
F, F,F,2 |]  


